X:18207
T:Valse  Guilleman - Valse/Walzer/Waltz
C:traditionell
Z:abc transcription Simon Wascher
N:please mail errors to simon.wascher@chello.at
M:3/4
L:1/4
K:G
DGB|d2^c/d/|edB|G3|
DGB|B2A/B/|cFA|1A>GF/E/:|2G3||
|:B/c/B/G/D/G/|B/c/B/G/D/G/|A/B/A/F/D/F/|A/B/A/F/D/F/|
B/c/B/G/D/G/|B/c/B/G/D/G/|A/B/A/F/D/F/|G3:|
